src/lib/packages/icons/src/assets/line/triangle-exclamation.svg

<svg width="24" height="24" viewBox="0 0 24 24" fill="none" xmlns="http://www.w3.org/2000/svg">
<path d="M18.6918 22.75H5.30804C3.86904 22.75 2.56904 22.014 1.82904 20.781C1.09204 19.551 1.05589 18.0621 1.73089 16.7981L8.33685 4.44312C9.06985 3.07012 10.44 2.25098 11.998 2.25098C13.556 2.25098 14.9259 3.07012 15.6589 4.44312L22.2648 16.7981C22.9418 18.0621 22.9059 19.551 22.1679 20.781C21.4329 22.014 20.1318 22.75 18.6918 22.75ZM11.9999 3.75C11.0039 3.75 10.1298 4.27293 9.66082 5.14893L3.05487 17.5039C2.62987 18.2989 2.65388 19.235 3.11688 20.009C3.58288 20.786 4.40202 21.249 5.30902 21.249H18.6931C19.6 21.249 20.4199 20.785 20.8849 20.009C21.3479 19.236 21.37 18.2999 20.946 17.5039L14.34 5.14893C13.87 4.27293 12.9959 3.75 11.9999 3.75ZM12.7499 14V10C12.7499 9.586 12.4139 9.25 11.9999 9.25C11.5859 9.25 11.2499 9.586 11.2499 10V14C11.2499 14.414 11.5859 14.75 11.9999 14.75C12.4139 14.75 12.7499 14.414 12.7499 14ZM13.02 17C13.02 16.448 12.573 16 12.02 16H12.0099C11.4579 16 11.0148 16.448 11.0148 17C11.0148 17.552 11.468 18 12.02 18C12.572 18 13.02 17.552 13.02 17Z" fill="currentColor"/>
</svg>

<svg xmlns="http://www.w3.org/2000/svg" width="24" height="24" fill="none"><path fill="currentColor" d="M18.692 22.75H5.308a4.024 4.024 0 0 1-3.479-1.969 4.01 4.01 0 0 1-.098-3.983L8.337 4.443a4.09 4.09 0 0 1 3.661-2.192 4.09 4.09 0 0 1 3.66 2.192l6.607 12.355a4.004 4.004 0 0 1-.097 3.983 4.012 4.012 0 0 1-3.476 1.969ZM12 3.75c-.996 0-1.87.523-2.34 1.399L3.056 17.504a2.523 2.523 0 0 0 .062 2.505 2.534 2.534 0 0 0 2.192 1.24h13.384c.907 0 1.727-.464 2.192-1.24.463-.773.485-1.71.061-2.505L14.34 5.149A2.616 2.616 0 0 0 12 3.75ZM12.75 14v-4a.75.75 0 0 0-1.5 0v4a.75.75 0 0 0 1.5 0Zm.27 3a1 1 0 0 0-1-1h-.01a.996.996 0 0 0-.995 1c0 .552.453 1 1.005 1a1 1 0 0 0 1-1Z"/></svg>
